packages/icons/src/components/ProductIcon/assets/vpc-peering.svg

<svg width="64" height="64" viewBox="0 0 64 64" fill="none" xmlns="http://www.w3.org/2000/svg">
<g>
<path d="M0 16C0 7.16344 7.16344 0 16 0H48C56.8366 0 64 7.16344 64 16V48C64 56.8366 56.8366 64 48 64H16C7.16344 64 0 56.8366 0 48V16Z" fill="#F1EEFC" class="fillWeak"/>
<path fill-rule="evenodd" clip-rule="evenodd" d="M48 2H16C8.26801 2 2 8.26801 2 16V48C2 55.732 8.26801 62 16 62H48C55.732 62 62 55.732 62 48V16C62 8.26801 55.732 2 48 2ZM16 0C7.16344 0 0 7.16344 0 16V48C0 56.8366 7.16344 64 16 64H48C56.8366 64 64 56.8366 64 48V16C64 7.16344 56.8366 0 48 0H16Z" fill="#F1EEFC" class="fillWeak"/>
<path d="M15.7285 44.4502L25.627 50.1641C25.2149 50.7058 24.8814 51.2882 24.626 51.8955L14.5518 46.0801C15.0811 45.6411 15.4938 45.0678 15.7412 44.4131C15.7366 44.4253 15.7333 44.438 15.7285 44.4502Z" fill="#A060F6" class="fillStrong"/>
<path d="M33 26.2559C34.8132 27.5208 36 29.6215 36 32C36 33.0662 35.7603 34.076 35.334 34.9805C35.2243 34.9926 35.1129 35 35 35C34.3826 35 33.8091 34.8129 33.332 34.4932C33.7555 33.759 34 32.9084 34 32C34 29.2386 31.7614 27 29 27C26.2386 27 24 29.2386 24 32C24 34.1764 25.3909 36.027 27.332 36.7139C27.8668 37.582 28.5456 38.3515 29.334 38.9912C29.2233 38.9964 29.112 39 29 39C27.2537 39 25.6578 38.3593 24.4316 37.3018L15.877 42.0088C15.7072 41.3421 15.3694 40.7423 14.9121 40.2568L23.0938 35.7549C22.4024 34.6696 22 33.3822 22 32C22 30.4871 22.481 29.0871 23.2969 27.9424L14.8066 22.8496C15.2828 22.3806 15.6424 21.7929 15.8369 21.1348L24.7178 26.4639C25.9016 25.5468 27.3867 25 29 25C29.6951 25 30.3662 25.1024 31 25.291V12.873C31.3196 12.9553 31.6547 12.999 32 12.999C32.3453 12.999 32.6804 12.9553 33 12.873V26.2559Z" fill="#A060F6" class="fillStrong"/>
<path d="M13.0811 23.8516V39.1475C13.0932 39.1509 13.105 39.1557 13.1172 39.1592C12.7625 39.0562 12.3879 39 12 39C11.6711 39 11.3517 39.0404 11.0459 39.1152C11.0577 39.1123 11.0692 39.1083 11.0811 39.1055V23.8936C11.0758 23.8923 11.0707 23.8899 11.0654 23.8887C11.3654 23.9605 11.6781 24 12 24C12.3794 24 12.746 23.9454 13.0938 23.8467C13.0894 23.8479 13.0854 23.8503 13.0811 23.8516Z" fill="#A060F6" class="fillStrong"/>
<path d="M28.1396 10.0488C28.3213 10.7196 28.6728 11.32 29.1455 11.8018L15.958 19.415C15.96 19.4289 15.96 19.4431 15.9619 19.457C15.8633 18.731 15.5705 18.0674 15.1367 17.5195C15.1476 17.5333 15.1592 17.5466 15.1699 17.5605L28.1445 10.0693C28.1427 10.0626 28.1415 10.0556 28.1396 10.0488Z" fill="#A060F6" class="fillStrong"/>
<path d="M34.8281 6.17188C34.9233 6.26702 35.0131 6.36587 35.0967 6.46777C35.1086 6.48233 35.1192 6.49795 35.1309 6.5127C35.0363 6.39377 34.9354 6.27919 34.8281 6.17188Z" fill="#A060F6" class="fillStrong"/>
<path d="M34.6006 5.96191C34.6075 5.96785 34.6142 5.97449 34.6211 5.98047C34.6082 5.96926 34.5951 5.95831 34.582 5.94727C34.588 5.95236 34.5946 5.95678 34.6006 5.96191Z" fill="#A060F6" class="fillStrong"/>
<path d="M34.3711 5.77832C34.377 5.78267 34.3828 5.7876 34.3887 5.79199C34.3555 5.76728 34.321 5.7444 34.2871 5.7207C34.315 5.74014 34.3438 5.75818 34.3711 5.77832Z" fill="#A060F6" class="fillStrong"/>
<path d="M30.1143 5.47266C30.1247 5.46705 30.135 5.4606 30.1455 5.45508C30.1609 5.44704 30.1769 5.44044 30.1924 5.43262C30.1663 5.44587 30.14 5.45885 30.1143 5.47266Z" fill="#A060F6" class="fillStrong"/>
<path d="M33.4629 5.27734C33.474 5.28171 33.485 5.28656 33.4961 5.29102C33.4758 5.28281 33.4551 5.27546 33.4346 5.26758C33.4439 5.27116 33.4536 5.2737 33.4629 5.27734Z" fill="#A060F6" class="fillStrong"/>
<path d="M33.1445 5.16699C33.1494 5.16845 33.1543 5.1704 33.1592 5.17188C33.1439 5.16726 33.1286 5.16264 33.1133 5.1582C33.1237 5.16121 33.1342 5.1639 33.1445 5.16699Z" fill="#A060F6" class="fillStrong"/>
<path d="M32.5264 5.03516C32.5345 5.03623 32.5426 5.03794 32.5508 5.03906C32.5306 5.03629 32.5105 5.03372 32.4902 5.03125C32.5023 5.03273 32.5144 5.03357 32.5264 5.03516Z" fill="#A060F6" class="fillStrong"/>
<path fill-rule="evenodd" clip-rule="evenodd" d="M48.8291 17.5605C49.5225 16.6605 50.5915 16.0643 51.8008 16.0049L52 16C54.2091 16 56 17.7909 56 20C55.9999 21.8928 54.6851 23.4783 52.9189 23.8936V39.1055C54.685 39.5206 55.9998 41.1063 56 42.999C56 45.1412 54.3156 46.8901 52.1992 46.9941L52 46.999C51.0301 46.999 50.1407 46.6543 49.4482 46.0801L35.8545 53.9277C35.9491 54.2688 36 54.6288 36 55C35.9999 56.3986 35.2817 57.6288 34.1943 58.3438C34.0999 58.4058 34.0035 58.4633 33.9053 58.5166C33.8884 58.5258 33.8715 58.535 33.8545 58.5439C33.6258 58.6637 33.3879 58.7596 33.1445 58.832C33.1296 58.8365 33.1146 58.8405 33.0996 58.8447C32.7018 58.9581 32.2903 59.0083 31.8799 58.9961C31.7902 58.9935 31.7014 58.9889 31.6133 58.9805C31.3645 58.9565 31.1176 58.9094 30.876 58.8389C30.2886 58.6672 29.7571 58.365 29.3154 57.9648C29.2667 57.9207 29.2189 57.8751 29.1719 57.8281C29.0795 57.7357 28.9916 57.6398 28.9102 57.541C28.6013 57.1659 28.3607 56.733 28.2041 56.2617C28.1703 56.1598 28.1406 56.0569 28.1152 55.9531C28.1114 55.9376 28.1081 55.9219 28.1045 55.9062C28.0354 55.608 28 55.3036 28 54.999C28.0001 54.6413 28.0476 54.2948 28.1357 53.9648C28.3099 53.3118 28.6519 52.6943 29.1621 52.1807C29.6611 51.6784 30.2928 51.3079 31 51.126V37.7432C29.1871 36.4781 28 34.3783 28 32C28 30.9337 28.2386 29.9231 28.665 29.0186C28.775 29.0063 28.8868 29 29 29C29.6169 29 30.1902 29.1865 30.667 29.5059C30.2434 30.2401 30 31.0914 30 32C30 34.7614 32.2386 37 35 37C37.7614 37 40 34.7614 40 32C40 29.8232 38.6087 27.9717 36.667 27.2852C36.1321 26.4171 35.4536 25.6475 34.665 25.0078C34.776 25.0026 34.8877 25 35 25C36.6131 25 38.0975 25.5471 39.2812 26.4639L48.1631 21.1357C48.1641 21.1349 48.165 21.1336 48.166 21.1328C48.0599 20.7734 48 20.3938 48 20C48 19.8017 48.0141 19.6066 48.042 19.416L38.373 13.833C38.7851 13.291 39.1187 12.7092 39.374 12.1016L48.8291 17.5605ZM32 53C30.8954 53 30 53.8954 30 55C30 56.1046 30.8954 57 32 57C33.1046 57 34 56.1046 34 55C34 53.8954 33.1046 53 32 53ZM39.5664 37.3018C38.3404 38.3587 36.7458 39 35 39C34.3048 39 33.6339 38.8967 33 38.708V51.126C33.715 51.3097 34.3518 51.6857 34.8535 52.1963L48.2715 44.4502C48.0964 44.0005 48 43.5107 48 42.999C48 42.657 48.0422 42.3247 48.123 42.0078L39.5664 37.3018ZM52 41C50.8954 41 50 41.8954 50 43C50 44.1045 50.8955 45 52 45C53.1045 45 54 44.1045 54 43C54 41.8954 53.1046 41 52 41ZM49.1934 22.8506L40.7031 27.9424C41.519 29.0871 42 30.4871 42 32C42 33.3823 41.5968 34.6695 40.9053 35.7549L49.0889 40.2568L49.0898 40.2578C49.5811 39.7366 50.2097 39.3462 50.9189 39.1475V23.8516C50.2596 23.6668 49.6708 23.3156 49.1963 22.8486C49.1953 22.8491 49.1944 22.8501 49.1934 22.8506ZM52 18C50.8954 18 50 18.8954 50 20C50 21.1046 50.8954 22 52 22C53.1046 22 54 21.1046 54 20C54 18.8954 53.1046 18 52 18Z" fill="#521094" class="fill"/>
<path fill-rule="evenodd" clip-rule="evenodd" d="M12 39C14.2091 39 16 40.7909 16 43C16 45.2091 14.2091 47 12 47C9.79086 47 8 45.2091 8 43C8 40.7909 9.79086 39 12 39ZM12 41C10.8954 41 10 41.8954 10 43C10 44.1046 10.8954 45 12 45C13.1046 45 14 44.1046 14 43C14 41.8954 13.1046 41 12 41Z" fill="#521094" class="fill"/>
<path fill-rule="evenodd" clip-rule="evenodd" d="M12 16C14.2091 16 16 17.7909 16 20C16 22.2091 14.2091 24 12 24C9.79086 24 8 22.2091 8 20C8 17.7909 9.79086 16 12 16ZM12 18C10.8954 18 10 18.8954 10 20C10 21.1046 10.8954 22 12 22C13.1046 22 14 21.1046 14 20C14 18.8954 13.1046 18 12 18Z" fill="#521094" class="fill"/>
<path fill-rule="evenodd" clip-rule="evenodd" d="M32 5C34.2091 5 36 6.79086 36 9C36 11.2091 34.2091 13 32 13C29.7909 13 28 11.2091 28 9C28 6.79086 29.7909 5 32 5ZM32 7C30.8954 7 30 7.89543 30 9C30 10.1046 30.8954 11 32 11C33.1046 11 34 10.1046 34 9C34 7.89543 33.1046 7 32 7Z" fill="#521094" class="fill"/>
</g>
<defs>
<rect width="64" height="64" fill="white"/>
</defs>
</svg>

<svg xmlns="http://www.w3.org/2000/svg" width="64" height="64" fill="none" viewBox="0 0 64 64">
    <path fill="#f1eefc" d="M0 16C0 7.163 7.163 0 16 0h32c8.837 0 16 7.163 16 16v32c0 8.837-7.163 16-16 16H16C7.163 64 0 56.837 0 48z" class="fillWeak"/>
    <path fill="#f1eefc" fill-rule="evenodd" d="M48 2H16C8.268 2 2 8.268 2 16v32c0 7.732 6.268 14 14 14h32c7.732 0 14-6.268 14-14V16c0-7.732-6.268-14-14-14M16 0C7.163 0 0 7.163 0 16v32c0 8.837 7.163 16 16 16h32c8.837 0 16-7.163 16-16V16c0-8.837-7.163-16-16-16z" class="fillWeak" clip-rule="evenodd"/>
    <path fill="#a060f6" d="m15.729 44.45 9.898 5.714a8 8 0 0 0-1.001 1.731L14.552 46.08a4 4 0 0 0 1.19-1.667zM33 26.256A6.99 6.99 0 0 1 36 32c0 1.066-.24 2.076-.666 2.98Q35.169 35 35 35c-.617 0-1.19-.187-1.668-.507a5 5 0 1 0-6 2.22 9 9 0 0 0 2.002 2.278Q29.168 39 29 39a6.97 6.97 0 0 1-4.568-1.698l-8.555 4.707a4 4 0 0 0-.965-1.752l8.182-4.502A6.97 6.97 0 0 1 22 32c0-1.513.481-2.913 1.297-4.058l-8.49-5.092a4 4 0 0 0 1.03-1.715l8.88 5.329A7 7 0 0 1 31 25.29V12.873a4 4 0 0 0 2.001 0zm-19.919-2.404v15.296l.036.011a4 4 0 0 0-2.071-.044l.035-.01v-15.21l-.016-.005a4 4 0 0 0 2.029-.042q-.007.001-.013.005M28.14 10.049c.181.67.533 1.271 1.005 1.753l-13.187 7.613.004.042a4 4 0 0 0-.825-1.937l.033.04 12.975-7.49zm6.688-3.877q.143.143.269.296l.034.045a4 4 0 0 0-.303-.341m-.228-.21.021.018-.039-.033zm-.229-.184.018.014q-.051-.037-.102-.071zm-4.257-.305.031-.018.047-.022zm3.349-.196.033.014-.061-.023zm-.318-.11.014.005-.046-.014zm-.619-.132.025.004-.06-.008z" class="fillStrong"/>
    <path fill="#521094" fill-rule="evenodd" d="M48.83 17.56a4 4 0 0 1 2.97-1.555L52 16a4 4 0 0 1 .919 7.894v15.212a4.002 4.002 0 0 1-.72 7.888L52 47c-.97 0-1.86-.345-2.552-.919l-13.593 7.848q.143.512.145 1.072a4 4 0 0 1-2.095 3.517l-.05.027q-.345.18-.71.288l-.045.013a4.01 4.01 0 0 1-4.19-1.304 4 4 0 0 1-.795-1.588l-.01-.047a4 4 0 0 1 .03-1.941 4 4 0 0 1 1.027-1.784A4 4 0 0 1 31 51.126V37.743A6.99 6.99 0 0 1 28 32c0-1.066.239-2.077.665-2.981a3 3 0 0 1 2.002.487 5 5 0 1 0 6-2.22 9 9 0 0 0-2.002-2.278Q34.832 25 35 25c1.613 0 3.097.547 4.281 1.464l8.882-5.328.003-.003a4 4 0 0 1-.124-1.717l-9.669-5.583a8 8 0 0 0 1.001-1.731zM32 53a2 2 0 1 0 0 4 2 2 0 0 0 0-4m7.566-15.698A6.97 6.97 0 0 1 35 39a7 7 0 0 1-2-.292v12.418a4 4 0 0 1 1.853 1.07l13.419-7.746A4 4 0 0 1 48 43q0-.514.123-.991zM52 41a2 2 0 1 0 0 4 2 2 0 0 0 0-4m-2.807-18.15-8.49 5.092A6.97 6.97 0 0 1 42 32a6.96 6.96 0 0 1-1.095 3.755l8.184 4.502a4 4 0 0 1 1.83-1.11V23.853a4 4 0 0 1-1.723-1.003zM52 18a2 2 0 1 0 0 4 2 2 0 0 0 0-4M12 39a4 4 0 1 1 0 8 4 4 0 0 1 0-8m0 2a2 2 0 1 0 0 4 2 2 0 0 0 0-4m0-25a4 4 0 1 1 0 8 4 4 0 0 1 0-8m0 2a2 2 0 1 0 0 4 2 2 0 0 0 0-4M32 5a4 4 0 1 1 0 8 4 4 0 0 1 0-8m0 2a2 2 0 1 0 0 4 2 2 0 0 0 0-4" class="fill" clip-rule="evenodd"/>
</svg>
